X: 12929
T: Fiddler Y Chiarn
R: jig
M: 6/8
K: Gmajor
B2c|d2e d2B|c2B BAG|A2A A2B|A3 B2c|
d2e d2B|c2B BAG|A2A A2B|A3A2D|
G3 GAB|A3 ABc|d2d gfe|d3 d2c|
B2c dBG|A2B cAF|G2G G2F|G3||

